X: 4
M: 2/4
L: 1/8
P: Top staff for violin, flute or flageolet, bottom staffs for piano.
K: D
V: 1 nm="violin\nflute or\nflageolet"
|:\
e2 cd | ef g2 | f2 de | fg a2 |\
b2 gb | a2 fa | gfge | dcBA |]"^D.C."y
V: 2 clef=treble staves=2 nm="piano"
|:\
[A2F2] [A2F2] | [A2F2] [A2F2] | [B2G2] [B2G2] | A2 z2 |\
[A2F2] [A2F2] | [A2F2] [A2F2] | [G2E2] [G2E2] | [F2D2] [F2D2] :|
[E2C2] [E2C2] | [E2C2] [G2E2] | [F2D2] [F2D2] | [F2D2] [A2D2] |\
[B2D2] [B2G2] | [A2D2] [A2F2] | [G2E2] G^G | A2 z2 |]
V: 3 clef=bass middle=d nm="forte"
|:\


